X: 32
T:Jenny Picking Cockles
M:C|
L:1/8
R:Reel
K:DMix
Addc AGEF|GEcE dEcE|Addc AGEF|GEcE EDD2|!
Addc AGEF|G2AB ~c3d|edcA AGEF|GEcE EDD2:|!
|:f3d e3d|cAAB cdeg|f3d e3d|eaag edde|!
f3d e3d|cAAB ~c3d|edcA AGEF|GEcE EDD2:|]!
